X: 22
T: Madame Maxwell's Waltz
C: Turlough O'Carolan
R: waltz
M: 3/4
L: 1/8
Z: John Chambers, based on several O'Neill versions and a Richard Robinson transcription.
N: Waltz-time version of Planxty Madame Maxwell
K: D
|: "D"AB A2 FD | "D"F2 A2 d2 | "A7"cd ed ef | "A7"ef g2 fe \
|  "D"dA GF ED | "G"G2 B2 d2 | "A7"cA e2 dc |  "D"d6 :|
[| "D"a2 d2 a2 | "G"g2 b2 ag |  "D"fd a2 gf | "A7"g2 e2 g2 \
|  "D"fg ag ab | "D"ag f2 e2 |  "G"d2 e2 d2 | "A7"c2 A2 Bc ||
|| "D"d2 cB AG | "D"F2 D2 d2 | "A7"cd ef ed | "A7"c2 A2 Bc \
|  "D"dc BA GF | "G"G2 B2 A2 | "A7"BA GF ED |  "D"D6 |]

%%sep 1 1 500

